images/content/johnson-solids/square-gyrobicupola.svg

<?xml version="1.0" encoding="UTF-8"?>
<svg xmlns="http://www.w3.org/2000/svg" xmlns:xlink="http://www.w3.org/1999/xlink" width="260pt" height="200pt" viewBox="0 0 260 200" version="1.2">
<g id="surface1">
<path style=" stroke:none;fill-rule:nonzero;fill:rgb(56.834412%,25%,38.890076%);fill-opacity:1;" d="M 145.300781 12.722656 L 225.339844 54.585938 L 147.5625 59.289062 "/>
<path style="fill:none;stroke-width:9.02;stroke-linecap:round;stroke-linejoin:round;stroke:rgb(0%,0%,0%);stroke-opacity:1;stroke-miterlimit:10;" d="M 1453.007812 1872.773438 L 2253.398438 1454.140625 L 1475.625 1407.109375 Z M 1453.007812 1872.773438 " transform="matrix(0.1,0,0,-0.1,0,200)"/>
<path style="fill-rule:nonzero;fill:rgb(75.389099%,40.795898%,39.793396%);fill-opacity:1;stroke-width:9.02;stroke-linecap:round;stroke-linejoin:round;stroke:rgb(0%,0%,0%);stroke-opacity:1;stroke-miterlimit:10;" d="M 1475.625 1407.109375 L 619.6875 1124.179688 L 534.0625 1573.515625 " transform="matrix(0.1,0,0,-0.1,0,200)"/>
<path style="fill-rule:nonzero;fill:rgb(75.389099%,40.795898%,39.793396%);fill-opacity:1;stroke-width:9.02;stroke-linecap:round;stroke-linejoin:round;stroke:rgb(0%,0%,0%);stroke-opacity:1;stroke-miterlimit:10;" d="M 534.0625 1573.515625 L 1453.007812 1872.773438 L 1475.625 1407.109375 " transform="matrix(0.1,0,0,-0.1,0,200)"/>
<path style="fill-rule:nonzero;fill:rgb(58.59375%,53.318787%,76.367188%);fill-opacity:1;stroke-width:9.02;stroke-linecap:round;stroke-linejoin:round;stroke:rgb(0%,0%,0%);stroke-opacity:1;stroke-miterlimit:10;" d="M 1475.625 1407.109375 L 2253.398438 1454.140625 L 2102.695312 559.296875 " transform="matrix(0.1,0,0,-0.1,0,200)"/>
<path style="fill-rule:nonzero;fill:rgb(58.59375%,53.318787%,76.367188%);fill-opacity:1;stroke-width:9.02;stroke-linecap:round;stroke-linejoin:round;stroke:rgb(0%,0%,0%);stroke-opacity:1;stroke-miterlimit:10;" d="M 2102.695312 559.296875 L 1313.789062 551.601562 L 1475.625 1407.109375 " transform="matrix(0.1,0,0,-0.1,0,200)"/>
<path style=" stroke:none;fill-rule:nonzero;fill:rgb(70.701599%,61.71875%,75.389099%);fill-opacity:1;" d="M 131.378906 144.839844 L 61.96875 87.582031 L 147.5625 59.289062 "/>
<path style="fill:none;stroke-width:9.02;stroke-linecap:round;stroke-linejoin:round;stroke:rgb(0%,0%,0%);stroke-opacity:1;stroke-miterlimit:10;" d="M 1313.789062 551.601562 L 619.6875 1124.179688 L 1475.625 1407.109375 Z M 1313.789062 551.601562 " transform="matrix(0.1,0,0,-0.1,0,200)"/>
<path style=" stroke:none;fill-rule:nonzero;fill:rgb(91.796875%,59.179688%,40.989685%);fill-opacity:1;" d="M 53.40625 42.648438 L 61.96875 87.582031 L 7.953125 126.914062 "/>
<path style="fill:none;stroke-width:9.02;stroke-linecap:round;stroke-linejoin:round;stroke:rgb(0%,0%,0%);stroke-opacity:1;stroke-miterlimit:10;" d="M 534.0625 1573.515625 L 619.6875 1124.179688 L 79.53125 730.859375 Z M 534.0625 1573.515625 " transform="matrix(0.1,0,0,-0.1,0,200)"/>
<path style="fill-rule:nonzero;fill:rgb(77.34375%,75.389099%,83.59375%);fill-opacity:1;stroke-width:9.02;stroke-linecap:round;stroke-linejoin:round;stroke:rgb(0%,0%,0%);stroke-opacity:1;stroke-miterlimit:10;" d="M 79.53125 730.859375 L 619.6875 1124.179688 L 1313.789062 551.601562 " transform="matrix(0.1,0,0,-0.1,0,200)"/>
<path style="fill-rule:nonzero;fill:rgb(77.34375%,75.389099%,83.59375%);fill-opacity:1;stroke-width:9.02;stroke-linecap:round;stroke-linejoin:round;stroke:rgb(0%,0%,0%);stroke-opacity:1;stroke-miterlimit:10;" d="M 1313.789062 551.601562 L 808.125 117.1875 L 79.53125 730.859375 " transform="matrix(0.1,0,0,-0.1,0,200)"/>
<path style="fill-rule:nonzero;fill:rgb(51.367188%,69.726562%,95.117188%);fill-opacity:1;stroke-width:9.02;stroke-linecap:round;stroke-linejoin:round;stroke:rgb(0%,0%,0%);stroke-opacity:1;stroke-miterlimit:10;" d="M 808.125 117.1875 L 1313.789062 551.601562 L 2102.695312 559.296875 " transform="matrix(0.1,0,0,-0.1,0,200)"/>
<path style=" stroke:none;fill-rule:nonzero;fill:rgb(24.510193%,28.489685%,70.506287%);fill-opacity:1;" d="M 210.269531 144.070312 L 225.339844 54.585938 L 254.53125 78.722656 "/>
<path style="fill:none;stroke-width:9.02;stroke-linecap:round;stroke-linejoin:round;stroke:rgb(0%,0%,0%);stroke-opacity:1;stroke-miterlimit:10;" d="M 2102.695312 559.296875 L 2253.398438 1454.140625 L 2545.3125 1212.773438 Z M 2102.695312 559.296875 " transform="matrix(0.1,0,0,-0.1,0,200)"/>
<path style="fill-rule:nonzero;fill:rgb(54.492188%,92.576599%,80.664062%);fill-opacity:1;stroke-width:9.02;stroke-linecap:round;stroke-linejoin:round;stroke:rgb(0%,0%,0%);stroke-opacity:1;stroke-miterlimit:10;" d="M 2545.3125 1212.773438 L 2253.398438 1454.140625 L 1453.007812 1872.773438 " transform="matrix(0.1,0,0,-0.1,0,200)"/>
<path style=" stroke:none;fill-rule:nonzero;fill:rgb(77.34375%,99.414062%,86.71875%);fill-opacity:1;" d="M 80.8125 188.28125 L 19.941406 157.609375 L 7.953125 126.914062 "/>
<path style="fill:none;stroke-width:9.02;stroke-linecap:round;stroke-linejoin:round;stroke:rgb(0%,0%,0%);stroke-opacity:1;stroke-miterlimit:10;" d="M 808.125 117.1875 L 199.414062 423.90625 L 79.53125 730.859375 Z M 808.125 117.1875 " transform="matrix(0.1,0,0,-0.1,0,200)"/>
<path style="fill-rule:nonzero;fill:rgb(8.909607%,24.609375%,73.046875%);fill-opacity:1;stroke-width:9.02;stroke-linecap:round;stroke-linejoin:round;stroke:rgb(0%,0%,0%);stroke-opacity:1;stroke-miterlimit:10;" d="M 79.53125 730.859375 L 199.414062 423.90625 L 693.476562 1333.007812 " transform="matrix(0.1,0,0,-0.1,0,200)"/>
<path style="fill-rule:nonzero;fill:rgb(8.909607%,24.609375%,73.046875%);fill-opacity:1;stroke-width:9.02;stroke-linecap:round;stroke-linejoin:round;stroke:rgb(0%,0%,0%);stroke-opacity:1;stroke-miterlimit:10;" d="M 693.476562 1333.007812 L 534.0625 1573.515625 L 79.53125 730.859375 " transform="matrix(0.1,0,0,-0.1,0,200)"/>
<path style="fill-rule:nonzero;fill:rgb(51.367188%,69.726562%,95.117188%);fill-opacity:1;stroke-width:9.02;stroke-linecap:round;stroke-linejoin:round;stroke:rgb(0%,0%,0%);stroke-opacity:1;stroke-miterlimit:10;" d="M 2102.695312 559.296875 L 1622.460938 103.476562 L 808.125 117.1875 " transform="matrix(0.1,0,0,-0.1,0,200)"/>
<path style="fill-rule:nonzero;fill:rgb(79.6875%,32.104492%,0%);fill-opacity:1;stroke-width:9.02;stroke-linecap:round;stroke-linejoin:round;stroke:rgb(0%,0%,0%);stroke-opacity:1;stroke-miterlimit:10;" d="M 1622.460938 103.476562 L 2102.695312 559.296875 L 2545.3125 1212.773438 " transform="matrix(0.1,0,0,-0.1,0,200)"/>
<path style="fill-rule:nonzero;fill:rgb(54.492188%,92.576599%,80.664062%);fill-opacity:1;stroke-width:9.02;stroke-linecap:round;stroke-linejoin:round;stroke:rgb(0%,0%,0%);stroke-opacity:1;stroke-miterlimit:10;" d="M 1453.007812 1872.773438 L 1686.71875 1659.453125 L 2545.3125 1212.773438 " transform="matrix(0.1,0,0,-0.1,0,200)"/>
<path style="fill-rule:nonzero;fill:rgb(41.601562%,69.53125%,97.851562%);fill-opacity:1;stroke-width:9.02;stroke-linecap:round;stroke-linejoin:round;stroke:rgb(0%,0%,0%);stroke-opacity:1;stroke-miterlimit:10;" d="M 693.476562 1333.007812 L 1686.71875 1659.453125 L 1453.007812 1872.773438 " transform="matrix(0.1,0,0,-0.1,0,200)"/>
<path style="fill-rule:nonzero;fill:rgb(41.601562%,69.53125%,97.851562%);fill-opacity:1;stroke-width:9.02;stroke-linecap:round;stroke-linejoin:round;stroke:rgb(0%,0%,0%);stroke-opacity:1;stroke-miterlimit:10;" d="M 1453.007812 1872.773438 L 534.0625 1573.515625 L 693.476562 1333.007812 " transform="matrix(0.1,0,0,-0.1,0,200)"/>
<path style="fill-rule:nonzero;fill:rgb(40.893555%,0%,1.499939%);fill-opacity:1;stroke-width:9.02;stroke-linecap:round;stroke-linejoin:round;stroke:rgb(0%,0%,0%);stroke-opacity:1;stroke-miterlimit:10;" d="M 1037.929688 425.820312 L 199.414062 423.90625 L 808.125 117.1875 " transform="matrix(0.1,0,0,-0.1,0,200)"/>
<path style="fill-rule:nonzero;fill:rgb(40.893555%,0%,1.499939%);fill-opacity:1;stroke-width:9.02;stroke-linecap:round;stroke-linejoin:round;stroke:rgb(0%,0%,0%);stroke-opacity:1;stroke-miterlimit:10;" d="M 808.125 117.1875 L 1622.460938 103.476562 L 1037.929688 425.820312 " transform="matrix(0.1,0,0,-0.1,0,200)"/>
<path style=" stroke:none;fill-rule:nonzero;fill:rgb(81.639099%,78.90625%,82.617188%);fill-opacity:1;" d="M 168.671875 34.054688 L 206.710938 122.515625 L 254.53125 78.722656 "/>
<path style="fill:none;stroke-width:9.02;stroke-linecap:round;stroke-linejoin:round;stroke:rgb(0%,0%,0%);stroke-opacity:1;stroke-miterlimit:10;" d="M 1686.71875 1659.453125 L 2067.109375 774.84375 L 2545.3125 1212.773438 Z M 1686.71875 1659.453125 " transform="matrix(0.1,0,0,-0.1,0,200)"/>
<path style="fill-rule:nonzero;fill:rgb(79.6875%,32.104492%,0%);fill-opacity:1;stroke-width:9.02;stroke-linecap:round;stroke-linejoin:round;stroke:rgb(0%,0%,0%);stroke-opacity:1;stroke-miterlimit:10;" d="M 2545.3125 1212.773438 L 2067.109375 774.84375 L 1622.460938 103.476562 " transform="matrix(0.1,0,0,-0.1,0,200)"/>
<path style=" stroke:none;fill-rule:nonzero;fill:rgb(75.976562%,42.993164%,42.601013%);fill-opacity:1;" d="M 162.246094 189.652344 L 206.710938 122.515625 L 103.792969 157.417969 "/>
<path style="fill:none;stroke-width:9.02;stroke-linecap:round;stroke-linejoin:round;stroke:rgb(0%,0%,0%);stroke-opacity:1;stroke-miterlimit:10;" d="M 1622.460938 103.476562 L 2067.109375 774.84375 L 1037.929688 425.820312 Z M 1622.460938 103.476562 " transform="matrix(0.1,0,0,-0.1,0,200)"/>
<path style=" stroke:none;fill-rule:nonzero;fill:rgb(56.25%,49.291992%,73.631287%);fill-opacity:1;" d="M 69.347656 66.699219 L 19.941406 157.609375 L 103.792969 157.417969 "/>
<path style="fill:none;stroke-width:9.02;stroke-linecap:round;stroke-linejoin:round;stroke:rgb(0%,0%,0%);stroke-opacity:1;stroke-miterlimit:10;" d="M 693.476562 1333.007812 L 199.414062 423.90625 L 1037.929688 425.820312 Z M 693.476562 1333.007812 " transform="matrix(0.1,0,0,-0.1,0,200)"/>
<path style="fill-rule:nonzero;fill:rgb(69.334412%,63.867188%,79.101562%);fill-opacity:1;stroke-width:9.02;stroke-linecap:round;stroke-linejoin:round;stroke:rgb(0%,0%,0%);stroke-opacity:1;stroke-miterlimit:10;" d="M 1037.929688 425.820312 L 2067.109375 774.84375 L 1686.71875 1659.453125 " transform="matrix(0.1,0,0,-0.1,0,200)"/>
<path style="fill-rule:nonzero;fill:rgb(69.334412%,63.867188%,79.101562%);fill-opacity:1;stroke-width:9.02;stroke-linecap:round;stroke-linejoin:round;stroke:rgb(0%,0%,0%);stroke-opacity:1;stroke-miterlimit:10;" d="M 1686.71875 1659.453125 L 693.476562 1333.007812 L 1037.929688 425.820312 " transform="matrix(0.1,0,0,-0.1,0,200)"/>
</g>
</svg>

<svg xmlns="http://www.w3.org/2000/svg" width="260pt" height="200pt" viewBox="0 0 260 200" version="1.2"><path style="stroke:none;fill-rule:nonzero;fill:#914063;fill-opacity:1" d="m145.3 12.723 80.04 41.863-77.778 4.703"/><path style="fill:none;stroke-width:9.02;stroke-linecap:round;stroke-linejoin:round;stroke:#000;stroke-opacity:1;stroke-miterlimit:10" d="m1453.008 1872.773 800.39-418.632-777.773-47.032Zm0 0" transform="matrix(.1 0 0 -.1 0 200)"/><path style="fill-rule:nonzero;fill:#c06865;fill-opacity:1;stroke-width:9.02;stroke-linecap:round;stroke-linejoin:round;stroke:#000;stroke-opacity:1;stroke-miterlimit:10" d="m1475.625 1407.11-855.938-282.93-85.625 449.336" transform="matrix(.1 0 0 -.1 0 200)"/><path style="fill-rule:nonzero;fill:#c06865;fill-opacity:1;stroke-width:9.02;stroke-linecap:round;stroke-linejoin:round;stroke:#000;stroke-opacity:1;stroke-miterlimit:10" d="m534.063 1573.516 918.945 299.257 22.617-465.664" transform="matrix(.1 0 0 -.1 0 200)"/><path style="fill-rule:nonzero;fill:#9588c3;fill-opacity:1;stroke-width:9.02;stroke-linecap:round;stroke-linejoin:round;stroke:#000;stroke-opacity:1;stroke-miterlimit:10" d="m1475.625 1407.11 777.773 47.03-150.703-894.843" transform="matrix(.1 0 0 -.1 0 200)"/><path style="fill-rule:nonzero;fill:#9588c3;fill-opacity:1;stroke-width:9.02;stroke-linecap:round;stroke-linejoin:round;stroke:#000;stroke-opacity:1;stroke-miterlimit:10" d="m2102.695 559.297-788.906-7.695 161.836 855.507" transform="matrix(.1 0 0 -.1 0 200)"/><path style="stroke:none;fill-rule:nonzero;fill:#b49dc0;fill-opacity:1" d="m131.379 144.84-69.41-57.258 85.594-28.293"/><path style="fill:none;stroke-width:9.02;stroke-linecap:round;stroke-linejoin:round;stroke:#000;stroke-opacity:1;stroke-miterlimit:10" d="M1313.79 551.602 619.687 1124.18l855.937 282.93Zm0 0" transform="matrix(.1 0 0 -.1 0 200)"/><path style="stroke:none;fill-rule:nonzero;fill:#ea9769;fill-opacity:1" d="m53.406 42.648 8.563 44.934-54.016 39.332"/><path style="fill:none;stroke-width:9.02;stroke-linecap:round;stroke-linejoin:round;stroke:#000;stroke-opacity:1;stroke-miterlimit:10" d="m534.063 1573.516 85.625-449.336L79.53 730.86Zm0 0" transform="matrix(.1 0 0 -.1 0 200)"/><path style="fill-rule:nonzero;fill:#c5c0d5;fill-opacity:1;stroke-width:9.02;stroke-linecap:round;stroke-linejoin:round;stroke:#000;stroke-opacity:1;stroke-miterlimit:10" d="m79.531 730.86 540.157 393.32 694.101-572.578" transform="matrix(.1 0 0 -.1 0 200)"/><path style="fill-rule:nonzero;fill:#c5c0d5;fill-opacity:1;stroke-width:9.02;stroke-linecap:round;stroke-linejoin:round;stroke:#000;stroke-opacity:1;stroke-miterlimit:10" d="M1313.79 551.602 808.124 117.188 79.531 730.859" transform="matrix(.1 0 0 -.1 0 200)"/><path style="fill-rule:nonzero;fill:#83b2f3;fill-opacity:1;stroke-width:9.02;stroke-linecap:round;stroke-linejoin:round;stroke:#000;stroke-opacity:1;stroke-miterlimit:10" d="m808.125 117.188 505.664 434.414 788.906 7.695" transform="matrix(.1 0 0 -.1 0 200)"/><path style="stroke:none;fill-rule:nonzero;fill:#3f49b4;fill-opacity:1" d="m210.27 144.07 15.07-89.484 29.191 24.137"/><path style="fill:none;stroke-width:9.02;stroke-linecap:round;stroke-linejoin:round;stroke:#000;stroke-opacity:1;stroke-miterlimit:10" d="m2102.695 559.297 150.703 894.844 291.914-241.368Zm0 0" transform="matrix(.1 0 0 -.1 0 200)"/><path style="fill-rule:nonzero;fill:#8becce;fill-opacity:1;stroke-width:9.02;stroke-linecap:round;stroke-linejoin:round;stroke:#000;stroke-opacity:1;stroke-miterlimit:10" d="m2545.313 1212.773-291.915 241.368-800.39 418.632" transform="matrix(.1 0 0 -.1 0 200)"/><path style="stroke:none;fill-rule:nonzero;fill:#c5fedd;fill-opacity:1" d="M80.813 188.281 19.94 157.61 7.953 126.914"/><path style="fill:none;stroke-width:9.02;stroke-linecap:round;stroke-linejoin:round;stroke:#000;stroke-opacity:1;stroke-miterlimit:10" d="m808.125 117.188-608.71 306.718L79.53 730.86Zm0 0" transform="matrix(.1 0 0 -.1 0 200)"/><path style="fill-rule:nonzero;fill:#173fba;fill-opacity:1;stroke-width:9.02;stroke-linecap:round;stroke-linejoin:round;stroke:#000;stroke-opacity:1;stroke-miterlimit:10" d="m79.531 730.86 119.883-306.954 494.063 909.102" transform="matrix(.1 0 0 -.1 0 200)"/><path style="fill-rule:nonzero;fill:#173fba;fill-opacity:1;stroke-width:9.02;stroke-linecap:round;stroke-linejoin:round;stroke:#000;stroke-opacity:1;stroke-miterlimit:10" d="m693.477 1333.008-159.414 240.508L79.53 730.859" transform="matrix(.1 0 0 -.1 0 200)"/><path style="fill-rule:nonzero;fill:#83b2f3;fill-opacity:1;stroke-width:9.02;stroke-linecap:round;stroke-linejoin:round;stroke:#000;stroke-opacity:1;stroke-miterlimit:10" d="m2102.695 559.297-480.234-455.82-814.336 13.71" transform="matrix(.1 0 0 -.1 0 200)"/><path style="fill-rule:nonzero;fill:#cb5200;fill-opacity:1;stroke-width:9.02;stroke-linecap:round;stroke-linejoin:round;stroke:#000;stroke-opacity:1;stroke-miterlimit:10" d="m1622.46 103.477 480.235 455.82 442.617 653.476" transform="matrix(.1 0 0 -.1 0 200)"/><path style="fill-rule:nonzero;fill:#8becce;fill-opacity:1;stroke-width:9.02;stroke-linecap:round;stroke-linejoin:round;stroke:#000;stroke-opacity:1;stroke-miterlimit:10" d="m1453.008 1872.773 233.71-213.32 858.594-446.68" transform="matrix(.1 0 0 -.1 0 200)"/><path style="fill-rule:nonzero;fill:#6ab1fa;fill-opacity:1;stroke-width:9.02;stroke-linecap:round;stroke-linejoin:round;stroke:#000;stroke-opacity:1;stroke-miterlimit:10" d="m693.477 1333.008 993.242 326.445-233.711 213.32" transform="matrix(.1 0 0 -.1 0 200)"/><path style="fill-rule:nonzero;fill:#6ab1fa;fill-opacity:1;stroke-width:9.02;stroke-linecap:round;stroke-linejoin:round;stroke:#000;stroke-opacity:1;stroke-miterlimit:10" d="m1453.008 1872.773-918.946-299.257 159.415-240.508" transform="matrix(.1 0 0 -.1 0 200)"/><path style="fill-rule:nonzero;fill:#680004;fill-opacity:1;stroke-width:9.02;stroke-linecap:round;stroke-linejoin:round;stroke:#000;stroke-opacity:1;stroke-miterlimit:10" d="m1037.93 425.82-838.516-1.914 608.711-306.719" transform="matrix(.1 0 0 -.1 0 200)"/><path style="fill-rule:nonzero;fill:#680004;fill-opacity:1;stroke-width:9.02;stroke-linecap:round;stroke-linejoin:round;stroke:#000;stroke-opacity:1;stroke-miterlimit:10" d="m808.125 117.188 814.336-13.711L1037.93 425.82" transform="matrix(.1 0 0 -.1 0 200)"/><path style="stroke:none;fill-rule:nonzero;fill:#d0c9d3;fill-opacity:1" d="m168.672 34.055 38.039 88.46 47.82-43.792"/><path style="fill:none;stroke-width:9.02;stroke-linecap:round;stroke-linejoin:round;stroke:#000;stroke-opacity:1;stroke-miterlimit:10" d="m1686.719 1659.453 380.39-884.61 478.204 437.93Zm0 0" transform="matrix(.1 0 0 -.1 0 200)"/><path style="fill-rule:nonzero;fill:#cb5200;fill-opacity:1;stroke-width:9.02;stroke-linecap:round;stroke-linejoin:round;stroke:#000;stroke-opacity:1;stroke-miterlimit:10" d="m2545.313 1212.773-478.204-437.93-444.648-671.366" transform="matrix(.1 0 0 -.1 0 200)"/><path style="stroke:none;fill-rule:nonzero;fill:#c26e6d;fill-opacity:1" d="m162.246 189.652 44.465-67.136-102.918 34.902"/><path style="fill:none;stroke-width:9.02;stroke-linecap:round;stroke-linejoin:round;stroke:#000;stroke-opacity:1;stroke-miterlimit:10" d="m1622.46 103.477 444.65 671.367L1037.93 425.82Zm0 0" transform="matrix(.1 0 0 -.1 0 200)"/><path style="stroke:none;fill-rule:nonzero;fill:#8f7ebc;fill-opacity:1" d="M69.348 66.7 19.94 157.61l83.852-.192"/><path style="fill:none;stroke-width:9.02;stroke-linecap:round;stroke-linejoin:round;stroke:#000;stroke-opacity:1;stroke-miterlimit:10" d="M693.477 1333.008 199.414 423.906l838.516 1.914Zm0 0" transform="matrix(.1 0 0 -.1 0 200)"/><path style="fill-rule:nonzero;fill:#b1a3ca;fill-opacity:1;stroke-width:9.02;stroke-linecap:round;stroke-linejoin:round;stroke:#000;stroke-opacity:1;stroke-miterlimit:10" d="m1037.93 425.82 1029.18 349.024-380.391 884.61" transform="matrix(.1 0 0 -.1 0 200)"/><path style="fill-rule:nonzero;fill:#b1a3ca;fill-opacity:1;stroke-width:9.02;stroke-linecap:round;stroke-linejoin:round;stroke:#000;stroke-opacity:1;stroke-miterlimit:10" d="m1686.719 1659.453-993.242-326.445L1037.93 425.82" transform="matrix(.1 0 0 -.1 0 200)"/></svg>
